app/assets/images/icons/active/rss.svg

<?xml version="1.0" encoding="UTF-8" standalone="no"?>
<svg width="32px" height="232px" viewBox="0 0 32 232" version="1.1" xmlns="http://www.w3.org/2000/svg" xmlns:xlink="http://www.w3.org/1999/xlink" xmlns:sketch="http://www.bohemiancoding.com/sketch/ns">
    <title>rss</title>
    <description>Created with Sketch (http://www.bohemiancoding.com/sketch)</description>
    <defs></defs>
    <g id="Social" stroke="none" stroke-width="1" fill="none" fill-rule="evenodd" sketch:type="MSPage">
        <path d="M15.3395939,26.82048 C15.3395939,25.50664 15.1259331,24.19016 14.5891324,22.9124 C14.0929449,21.66896 13.3424833,20.60152 12.3818926,19.60712 C11.4186532,18.6488 10.3097359,17.89992 9.06308693,17.4036 C7.81732081,16.87032 6.53270728,16.6204 5.14656072,16.6204 L5.14656072,12.4272 C9.1337186,12.4272 12.4860743,13.8132 15.3395939,16.6556 C18.154266,19.50152 19.587206,22.87808 19.587206,26.82048 L15.3395939,26.82048 L15.3395939,26.82048 L15.3395939,26.82048 L15.3395939,26.82048 Z M22.7903524,26.85832 C22.7903524,21.98752 21.0457501,17.82864 17.6192311,14.34736 C14.1980095,10.93296 10.0280921,9.1932 5.14656072,9.1932 L5.14656072,5 C11.2041095,5 16.3381491,7.13048 20.6175455,11.39672 C24.8598603,15.66032 27,20.85144 27,26.85832 L22.7903524,26.85832 L22.7903524,26.85832 L22.7903524,26.85832 L22.7903524,26.85832 Z M10.0280921,26.1112 C9.4559756,26.71488 8.78144313,27 7.95770126,27 C7.14367124,27 6.46207561,26.71488 5.85729192,26.1112 C5.28605827,25.54272 5,24.866 5,24.04672 C5,23.23272 5.28605827,22.556 5.85729192,21.9532 C6.46207561,21.34952 7.14367124,21.06616 7.95770126,21.06616 C8.78144313,21.06616 9.4559756,21.34952 10.0280921,21.9532 C10.6319929,22.556 10.9162854,23.23272 10.9162854,24.04672 C10.9162854,24.866 10.6319929,25.54272 10.0280921,26.1112 L10.0280921,26.1112 Z M10.0280921,26.1112" id="rss--title-grey" fill="#3A434E" sketch:type="MSShapeGroup"></path>
        <path d="M15.3395939,66.82048 C15.3395939,65.50664 15.1259331,64.19016 14.5891324,62.9124 C14.0929449,61.66896 13.3424833,60.60152 12.3818926,59.60712 C11.4186532,58.6488 10.3097359,57.89992 9.06308693,57.4036 C7.81732081,56.87032 6.53270728,56.6204 5.14656072,56.6204 L5.14656072,52.4272 C9.1337186,52.4272 12.4860743,53.8132 15.3395939,56.6556 C18.154266,59.50152 19.587206,62.87808 19.587206,66.82048 L15.3395939,66.82048 L15.3395939,66.82048 L15.3395939,66.82048 L15.3395939,66.82048 Z M22.7903524,66.85832 C22.7903524,61.98752 21.0457501,57.82864 17.6192311,54.34736 C14.1980095,50.93296 10.0280921,49.1932 5.14656072,49.1932 L5.14656072,45 C11.2041095,45 16.3381491,47.13048 20.6175455,51.39672 C24.8598603,55.66032 27,60.85144 27,66.85832 L22.7903524,66.85832 L22.7903524,66.85832 L22.7903524,66.85832 L22.7903524,66.85832 Z M10.0280921,66.1112 C9.4559756,66.71488 8.78144313,67 7.95770126,67 C7.14367124,67 6.46207561,66.71488 5.85729192,66.1112 C5.28605827,65.54272 5,64.866 5,64.04672 C5,63.23272 5.28605827,62.556 5.85729192,61.9532 C6.46207561,61.34952 7.14367124,61.06616 7.95770126,61.06616 C8.78144313,61.06616 9.4559756,61.34952 10.0280921,61.9532 C10.6319929,62.556 10.9162854,63.23272 10.9162854,64.04672 C10.9162854,64.866 10.6319929,65.54272 10.0280921,66.1112 L10.0280921,66.1112 Z M10.0280921,66.1112" id="rss--title-grey-copy" fill="#67737B" sketch:type="MSShapeGroup"></path>
        <path d="M15.3395939,106.82048 C15.3395939,105.50664 15.1259331,104.19016 14.5891324,102.9124 C14.0929449,101.66896 13.3424833,100.60152 12.3818926,99.60712 C11.4186532,98.6488 10.3097359,97.89992 9.06308693,97.4036 C7.81732081,96.87032 6.53270728,96.6204 5.14656072,96.6204 L5.14656072,92.4272 C9.1337186,92.4272 12.4860743,93.8132 15.3395939,96.6556 C18.154266,99.50152 19.587206,102.87808 19.587206,106.82048 L15.3395939,106.82048 L15.3395939,106.82048 L15.3395939,106.82048 L15.3395939,106.82048 Z M22.7903524,106.85832 C22.7903524,101.98752 21.0457501,97.82864 17.6192311,94.34736 C14.1980095,90.93296 10.0280921,89.1932 5.14656072,89.1932 L5.14656072,85 C11.2041095,85 16.3381491,87.13048 20.6175455,91.39672 C24.8598603,95.66032 27,100.85144 27,106.85832 L22.7903524,106.85832 L22.7903524,106.85832 L22.7903524,106.85832 L22.7903524,106.85832 Z M10.0280921,106.1112 C9.4559756,106.71488 8.78144313,107 7.95770126,107 C7.14367124,107 6.46207561,106.71488 5.85729192,106.1112 C5.28605827,105.54272 5,104.866 5,104.04672 C5,103.23272 5.28605827,102.556 5.85729192,101.9532 C6.46207561,101.34952 7.14367124,101.06616 7.95770126,101.06616 C8.78144313,101.06616 9.4559756,101.34952 10.0280921,101.9532 C10.6319929,102.556 10.9162854,103.23272 10.9162854,104.04672 C10.9162854,104.866 10.6319929,105.54272 10.0280921,106.1112 L10.0280921,106.1112 Z M10.0280921,106.1112" id="rss--title-grey-copy-2" fill="#FFFFFF" sketch:type="MSShapeGroup"></path>
        <path d="M15.3395939,146.82048 C15.3395939,145.50664 15.1259331,144.19016 14.5891324,142.9124 C14.0929449,141.66896 13.3424833,140.60152 12.3818926,139.60712 C11.4186532,138.6488 10.3097359,137.89992 9.06308693,137.4036 C7.81732081,136.87032 6.53270728,136.6204 5.14656072,136.6204 L5.14656072,132.4272 C9.1337186,132.4272 12.4860743,133.8132 15.3395939,136.6556 C18.154266,139.50152 19.587206,142.87808 19.587206,146.82048 L15.3395939,146.82048 L15.3395939,146.82048 L15.3395939,146.82048 L15.3395939,146.82048 Z M22.7903524,146.85832 C22.7903524,141.98752 21.0457501,137.82864 17.6192311,134.34736 C14.1980095,130.93296 10.0280921,129.1932 5.14656072,129.1932 L5.14656072,125 C11.2041095,125 16.3381491,127.13048 20.6175455,131.39672 C24.8598603,135.66032 27,140.85144 27,146.85832 L22.7903524,146.85832 L22.7903524,146.85832 L22.7903524,146.85832 L22.7903524,146.85832 Z M10.0280921,146.1112 C9.4559756,146.71488 8.78144313,147 7.95770126,147 C7.14367124,147 6.46207561,146.71488 5.85729192,146.1112 C5.28605827,145.54272 5,144.866 5,144.04672 C5,143.23272 5.28605827,142.556 5.85729192,141.9532 C6.46207561,141.34952 7.14367124,141.06616 7.95770126,141.06616 C8.78144313,141.06616 9.4559756,141.34952 10.0280921,141.9532 C10.6319929,142.556 10.9162854,143.23272 10.9162854,144.04672 C10.9162854,144.866 10.6319929,145.54272 10.0280921,146.1112 L10.0280921,146.1112 Z M10.0280921,146.1112" id="rss--title-grey-copy-3" fill="#206FAC" sketch:type="MSShapeGroup"></path>
    </g>
</svg>

<svg width="32" height="232" viewBox="0 0 32 232" xmlns="http://www.w3.org/2000/svg" xmlns:sketch="http://www.bohemiancoding.com/sketch/ns"><title>rss</title><g sketch:type="MSPage" fill="none"><path d="M15.34 26.82c0-1.314-.214-2.63-.75-3.908-.496-1.243-1.247-2.311-2.207-3.305-.963-.958-2.072-1.707-3.319-2.204-1.246-.533-2.53-.783-3.917-.783v-4.193c3.987 0 7.34 1.386 10.193 4.228 2.815 2.846 4.248 6.222 4.248 10.165h-4.248zm7.451.038c0-4.871-1.745-9.03-5.171-12.511-3.421-3.414-7.591-5.154-12.473-5.154v-4.193c6.058 0 11.192 2.13 15.471 6.397 4.242 4.264 6.382 9.455 6.382 15.462h-4.21zm-12.762-.747c-.572.604-1.247.889-2.07.889-.814 0-1.496-.285-2.1-.889-.571-.568-.857-1.245-.857-2.064 0-.814.286-1.491.857-2.094.605-.604 1.286-.887 2.1-.887.824 0 1.498.283 2.07.887.604.603.888 1.28.888 2.094 0 .819-.284 1.496-.888 2.064zm0 0" fill="#3A434E" sketch:type="MSShapeGroup"/><path d="M15.34 66.82c0-1.314-.214-2.63-.75-3.908-.496-1.243-1.247-2.311-2.207-3.305-.963-.958-2.072-1.707-3.319-2.204-1.246-.533-2.53-.783-3.917-.783v-4.193c3.987 0 7.34 1.386 10.193 4.228 2.815 2.846 4.248 6.222 4.248 10.165h-4.248zm7.451.038c0-4.871-1.745-9.03-5.171-12.511-3.421-3.414-7.591-5.154-12.473-5.154v-4.193c6.058 0 11.192 2.13 15.471 6.397 4.242 4.264 6.382 9.455 6.382 15.462h-4.21zm-12.762-.747c-.572.604-1.247.889-2.07.889-.814 0-1.496-.285-2.1-.889-.571-.568-.857-1.245-.857-2.064 0-.814.286-1.491.857-2.094.605-.604 1.286-.887 2.1-.887.824 0 1.498.283 2.07.887.604.603.888 1.28.888 2.094 0 .819-.284 1.496-.888 2.064zm0 0" fill="#67737B" sketch:type="MSShapeGroup"/><path d="M15.34 106.82c0-1.314-.214-2.63-.75-3.908-.496-1.243-1.247-2.311-2.207-3.305-.963-.958-2.072-1.707-3.319-2.204-1.246-.533-2.53-.783-3.917-.783v-4.193c3.987 0 7.34 1.386 10.193 4.228 2.815 2.846 4.248 6.222 4.248 10.165h-4.248zm7.451.038c0-4.871-1.745-9.03-5.171-12.511-3.421-3.414-7.591-5.154-12.473-5.154v-4.193c6.058 0 11.192 2.13 15.471 6.397 4.242 4.264 6.382 9.455 6.382 15.462h-4.21zm-12.762-.747c-.572.604-1.247.889-2.07.889-.814 0-1.496-.285-2.1-.889-.571-.568-.857-1.245-.857-2.064 0-.814.286-1.491.857-2.094.605-.604 1.286-.887 2.1-.887.824 0 1.498.283 2.07.887.604.603.888 1.28.888 2.094 0 .819-.284 1.496-.888 2.064zm0 0" fill="#fff" sketch:type="MSShapeGroup"/><path d="M15.34 146.82c0-1.314-.214-2.63-.75-3.908-.496-1.243-1.247-2.311-2.207-3.305-.963-.958-2.072-1.707-3.319-2.204-1.246-.533-2.53-.783-3.917-.783v-4.193c3.987 0 7.34 1.386 10.193 4.228 2.815 2.846 4.248 6.222 4.248 10.165h-4.248zm7.451.038c0-4.871-1.745-9.03-5.171-12.511-3.421-3.414-7.591-5.154-12.473-5.154v-4.193c6.058 0 11.192 2.13 15.471 6.397 4.242 4.264 6.382 9.455 6.382 15.462h-4.21zm-12.762-.747c-.572.604-1.247.889-2.07.889-.814 0-1.496-.285-2.1-.889-.571-.568-.857-1.245-.857-2.064 0-.814.286-1.491.857-2.094.605-.604 1.286-.887 2.1-.887.824 0 1.498.283 2.07.887.604.603.888 1.28.888 2.094 0 .819-.284 1.496-.888 2.064zm0 0" fill="#206FAC" sketch:type="MSShapeGroup"/></g></svg>
